svg/brand/linux.svg

<svg width="16" height="16" viewBox="0 0 16 16" fill="none" xmlns="http://www.w3.org/2000/svg">
<path d="M13.945 13.4951C13.953 13.3691 13.868 13.1722 13.605 12.8803C13.4855 12.712 13.4102 12.5165 13.386 12.3115C13.3646 12.1379 13.2918 11.9747 13.177 11.8427V11.8427C13.1145 11.7906 13.042 11.752 12.9638 11.7293C12.8857 11.7066 12.8037 11.7003 12.723 11.7107H12.612C12.4942 11.8482 12.3461 11.9564 12.1794 12.027C12.0126 12.0976 11.8318 12.1286 11.6511 12.1176C11.507 12.0573 11.3848 11.9544 11.3008 11.8227C11.2168 11.6911 11.1751 11.5369 11.1811 11.3809L11.1561 11.3939C11.0645 11.4519 10.9866 11.5291 10.9276 11.62C10.8686 11.7109 10.8299 11.8134 10.8141 11.9207C10.7518 12.2392 10.7183 12.5628 10.7141 12.8873V12.8873C10.6603 13.2324 10.577 13.5722 10.4651 13.903C10.3548 14.1911 10.3446 14.508 10.4361 14.8026C10.5066 14.9625 10.6265 15.0956 10.7782 15.1823C10.9299 15.269 11.1055 15.3048 11.2791 15.2845C11.7117 15.2229 12.1028 14.9938 12.368 14.6467C12.75 14.2868 13.196 14.0016 13.683 13.806C13.847 13.709 13.938 13.6161 13.945 13.4951ZM5.91722 14.4108C5.88456 14.0938 5.74736 13.7966 5.52723 13.5661C5.28977 13.294 5.07663 13.0017 4.89025 12.6924V12.6924L4.39726 11.7957C4.33751 11.6961 4.25842 11.6093 4.16466 11.5407C4.0709 11.472 3.96435 11.4228 3.85128 11.3959C3.82319 11.3912 3.79476 11.3888 3.76628 11.3889H3.76528C3.6968 11.3909 3.62964 11.4082 3.5686 11.4393C3.50757 11.4704 3.45419 11.5146 3.41229 11.5688C3.29329 11.6958 3.1913 11.8747 3.0553 12.0186C2.91334 12.138 2.74562 12.2229 2.56531 12.2665C2.48776 12.2854 2.41495 12.3201 2.35145 12.3684C2.28795 12.4168 2.23514 12.4777 2.19632 12.5474V12.5474C2.13846 12.7079 2.13045 12.8821 2.17332 13.0473C2.22505 13.2433 2.23019 13.4487 2.18832 13.647V13.647C2.0811 13.85 2.05777 14.0869 2.12332 14.3068C2.16706 14.3699 2.2245 14.4222 2.29134 14.46C2.35818 14.4977 2.4327 14.5199 2.50931 14.5247C3.03259 14.5546 3.54805 14.6656 4.03727 14.8536V14.8536C4.42369 15.0793 4.8758 15.1657 5.31824 15.0985C5.48493 15.0718 5.63672 14.9868 5.74659 14.8586C5.85646 14.7305 5.91728 14.5675 5.91822 14.3988V14.3988L5.91722 14.4108ZM9.03414 4.38441C8.97993 4.29336 8.89474 4.22487 8.79415 4.19148C8.61239 4.13278 8.43552 4.05992 8.26516 3.97356C8.0872 3.84617 7.87587 3.77355 7.65718 3.76463C7.5775 3.76487 7.49842 3.77839 7.42318 3.80462C7.26263 3.86934 7.11898 3.96986 7.00319 4.09851C6.98619 4.11451 6.96519 4.1285 6.9142 4.16649C6.8632 4.20447 6.7842 4.26145 6.6722 4.34542C6.62569 4.37454 6.59046 4.41859 6.57229 4.47036C6.55412 4.52213 6.55409 4.57853 6.5722 4.63032C6.63835 4.78847 6.76096 4.91638 6.9162 4.98919V4.98919C7.02479 5.0645 7.12742 5.14805 7.22319 5.2391C7.27199 5.28018 7.32658 5.31386 7.38518 5.33906C7.45651 5.36818 7.53223 5.38508 7.60918 5.38904C7.78729 5.3984 7.96397 5.35268 8.11516 5.25809C8.23775 5.17292 8.36837 5.09993 8.50515 5.04017C8.6192 5.01218 8.72586 4.95991 8.81784 4.88693C8.90983 4.81396 8.98497 4.72199 9.03814 4.61732C9.05431 4.58051 9.06232 4.54063 9.06163 4.50043C9.06094 4.46023 9.05156 4.42065 9.03414 4.38441ZM10.9531 10.5712C11.0171 10.1473 11.3531 10.1323 11.3721 9.84942C11.233 9.14243 10.9843 8.46147 10.6351 7.83116C10.1499 6.87513 9.76097 5.87322 9.47413 4.84024C9.29779 5.06823 9.05214 5.23276 8.77415 5.30907C8.60169 5.3893 8.43614 5.48359 8.27916 5.59097C8.07824 5.71384 7.8477 5.77984 7.61218 5.7819H7.53718C7.32294 5.77211 7.11781 5.6924 6.95319 5.55498C6.82796 5.4377 6.69427 5.32978 6.55321 5.2321C6.50421 5.20411 6.39321 5.13214 6.36121 5.10515C6.14554 6.33748 5.73008 7.52635 5.13124 8.62487C4.87087 9.23309 4.72477 9.88405 4.70025 10.5452C4.69193 10.669 4.71305 10.7931 4.76189 10.9073C4.81073 11.0214 4.88589 11.1224 4.98125 11.2019C5.44102 11.4632 5.84797 11.808 6.18122 12.2186C6.27957 12.3204 6.35192 12.4444 6.39213 12.5802C6.43234 12.7159 6.43923 12.8593 6.41221 12.9983C6.39344 13.0472 6.36498 13.0917 6.32855 13.1294C6.29213 13.167 6.24847 13.1969 6.20022 13.2172C6.10282 13.2581 5.99784 13.2779 5.89222 13.2752C5.95322 13.3522 6.01622 13.4311 6.07622 13.5101C6.17122 13.6341 6.26221 13.759 6.34221 13.886C6.88705 14.2267 7.52477 14.3888 8.16625 14.3495C8.80773 14.3103 9.42091 14.0717 9.92012 13.667C10.0197 13.3746 10.091 13.0734 10.1331 12.7674C10.1403 12.3482 10.1858 11.9307 10.2691 11.5198C10.2963 11.3575 10.3578 11.2028 10.4496 11.0661C10.5413 10.9294 10.6611 10.8138 10.8011 10.7271C10.8453 10.7027 10.8915 10.682 10.9391 10.6651C10.9438 10.6311 10.9484 10.5998 10.9531 10.5712V10.5712ZM7.30919 3.41376C7.31421 3.34888 7.31421 3.28371 7.30919 3.21883V3.21883C7.3036 3.06823 7.26967 2.92003 7.20919 2.78199C7.16076 2.66073 7.08231 2.55375 6.98119 2.4711C6.90645 2.40724 6.81153 2.37183 6.7132 2.37114H6.6882C6.58104 2.37758 6.48076 2.42608 6.40921 2.50609C6.31766 2.59911 6.25155 2.71407 6.21721 2.83997C6.17322 2.98424 6.15594 3.13533 6.16622 3.28581V3.28581C6.17281 3.43627 6.20669 3.58429 6.26621 3.72265C6.30896 3.82646 6.37261 3.92037 6.45321 3.99855L6.54121 3.93357C6.5802 3.90558 6.6122 3.87959 6.6592 3.8436L6.6362 3.82561C6.58718 3.78094 6.54918 3.7255 6.52521 3.66367C6.4959 3.59361 6.47768 3.51941 6.47121 3.44375V3.43375C6.46342 3.35515 6.46849 3.27581 6.48621 3.19884C6.49808 3.13363 6.52552 3.07224 6.5662 3.0199C6.58111 2.99839 6.60057 2.98043 6.62322 2.9673C6.64586 2.95416 6.67112 2.94619 6.6972 2.94393H6.7102C6.75499 2.94699 6.79705 2.96659 6.8282 2.99891C6.8772 3.0434 6.91491 3.09891 6.9382 3.16085C6.96881 3.22938 6.98871 3.3022 6.99719 3.37677V3.38577C7.00374 3.4429 7.00374 3.50058 6.99719 3.55771C7.07873 3.50436 7.16678 3.46169 7.25919 3.43075L7.30919 3.41376ZM9.47413 3.22583C9.47318 3.22155 9.47318 3.21711 9.47413 3.21283C9.47402 3.04013 9.43613 2.86954 9.36313 2.71302C9.30033 2.56518 9.19876 2.43705 9.06914 2.34215C8.95689 2.25551 8.81896 2.20873 8.67715 2.2092H8.66815C8.52253 2.20856 8.38119 2.25836 8.26816 2.35015C8.14099 2.44792 8.04197 2.5776 7.98117 2.72601C7.91044 2.88714 7.87629 3.06193 7.88117 3.23782V3.25282C7.88203 3.30367 7.88604 3.35441 7.89317 3.40476C8.03295 3.43645 8.16902 3.48268 8.29916 3.54271C8.28997 3.48992 8.28595 3.43635 8.28716 3.38277V3.37378C8.29028 3.27905 8.31132 3.18577 8.34916 3.09887C8.3778 3.02154 8.42563 2.95275 8.48815 2.89895C8.53573 2.8554 8.59765 2.83086 8.66215 2.82997H8.67115C8.70469 2.8311 8.73768 2.83883 8.76822 2.85272C8.79876 2.86662 8.82626 2.8864 8.84914 2.91094C8.90741 2.96943 8.95005 3.04162 8.97314 3.12087C9.00234 3.20776 9.01588 3.29914 9.01314 3.39077V3.39877C9.01179 3.49426 8.9921 3.5886 8.95514 3.67667C8.92232 3.73078 8.88153 3.77965 8.83414 3.82161L8.97914 3.87359C9.03614 3.89459 9.09814 3.91958 9.16914 3.95057C9.19013 3.95856 9.21013 3.96756 9.22913 3.97656C9.28819 3.90394 9.33636 3.82312 9.37213 3.73664C9.44315 3.5759 9.47797 3.40151 9.47413 3.22583V3.22583ZM14.126 12.6224C14.3997 12.856 14.5715 13.1869 14.605 13.5451C14.5856 13.669 14.5355 13.7861 14.4594 13.8857C14.3832 13.9854 14.2834 14.0645 14.169 14.1159C13.5852 14.354 13.0474 14.6923 12.58 15.1155L12.498 15.0485L12.579 15.1165C12.2125 15.5971 11.6702 15.9128 11.0711 15.9942C10.8128 16.0191 10.5531 15.9635 10.3277 15.835C10.1023 15.7065 9.92219 15.5114 9.81212 15.2765V15.2765C9.77776 15.2099 9.75157 15.1394 9.73412 15.0665C9.06314 15.1045 8.47915 14.9006 8.01217 14.9386C7.32419 14.9766 6.8942 15.1385 6.50221 15.1445C6.42648 15.306 6.31364 15.4474 6.17287 15.557C6.03211 15.6666 5.86742 15.7414 5.69223 15.7753C5.08996 15.8734 4.47229 15.7589 3.94528 15.4514L3.99727 15.3514L3.94728 15.4454C3.3514 15.2262 2.72696 15.0942 2.09332 15.0535C1.96635 15.0415 1.84379 15.0006 1.73497 14.9341C1.62616 14.8676 1.53394 14.7772 1.46534 14.6697C1.40895 14.5085 1.38607 14.3375 1.39811 14.1671C1.41014 13.9968 1.45684 13.8307 1.53534 13.679C1.57079 13.4633 1.56229 13.2426 1.51034 13.0303C1.48846 12.9081 1.47609 12.7845 1.47334 12.6604C1.46922 12.5259 1.49915 12.3925 1.56034 12.2725V12.2725C1.68544 12.0511 1.89329 11.8882 2.13832 11.8197C2.33224 11.7733 2.51375 11.6853 2.67031 11.5618C2.81331 11.4109 2.9413 11.1869 3.1143 11.001C3.1373 10.977 3.1623 10.953 3.1873 10.93C3.12003 10.3675 3.18614 9.79694 3.38029 9.26464C3.80024 8.15811 4.41341 7.13493 5.19124 6.24273C5.62335 5.65545 5.86739 4.95111 5.89122 4.22247C5.93622 3.22383 5.18724 0.239913 8.01117 0.0129953C8.12316 0 8.23016 0 8.33316 0C10.8611 0 10.7191 2.66603 10.7031 4.09851C10.7645 4.94988 11.135 5.74945 11.7451 6.3467C12.3554 7.03683 12.8462 7.82405 13.197 8.67585C13.5254 9.45989 13.5665 10.3346 13.313 11.146C13.3575 11.1633 13.4006 11.1841 13.442 11.2079C13.4862 11.2351 13.528 11.2658 13.567 11.2999V11.2999C13.7495 11.4915 13.8649 11.737 13.896 11.9996C13.9253 12.2191 14.0021 12.4296 14.121 12.6164L14.126 12.6224Z" fill="black"/>
</svg>

<svg id="Layer_1" data-name="Layer 1" xmlns="http://www.w3.org/2000/svg" viewBox="0 0 16 16"><title>linux</title><path d="M13.948,13.5c.008-.126-.077-.323-.34-.615h0a1.233,1.233,0,0,1-.219-.569.879.879,0,0,0-.209-.469h0a.59.59,0,0,0-.454-.132l-.111,0a1.172,1.172,0,0,1-.961.407.767.767,0,0,1-.47-.737l-.025.013a.754.754,0,0,0-.342.527,5.4,5.4,0,0,0-.1.967h0a6.1,6.1,0,0,1-.249,1.016,1.376,1.376,0,0,0-.029.9h0a.817.817,0,0,0,.843.482,1.666,1.666,0,0,0,1.089-.638,4.2,4.2,0,0,1,1.315-.841C13.85,13.714,13.941,13.621,13.948,13.5Zm-8.028.916a1.437,1.437,0,0,0-.39-.845,6.179,6.179,0,0,1-.637-.874h0L4.4,11.8a.872.872,0,0,0-.546-.4.512.512,0,0,0-.085-.007H3.768a.464.464,0,0,0-.353.18c-.119.127-.221.306-.357.45h0a1.2,1.2,0,0,1-.49.248.579.579,0,0,0-.369.281h0a.847.847,0,0,0-.023.5,1.3,1.3,0,0,1,.015.6v0h0a.877.877,0,0,0-.065.66.509.509,0,0,0,.386.218,5.064,5.064,0,0,1,1.528.329h0a1.957,1.957,0,0,0,1.281.245.713.713,0,0,0,.6-.7h0ZM9.037,4.386a.441.441,0,0,0-.24-.193h0a3.652,3.652,0,0,1-.529-.218,1.123,1.123,0,0,0-.608-.209.717.717,0,0,0-.234.04,1.137,1.137,0,0,0-.42.294h0c-.017.016-.038.03-.089.068s-.13.095-.242.179a.242.242,0,0,0-.1.285.691.691,0,0,0,.344.359h0a2.576,2.576,0,0,1,.307.25.651.651,0,0,0,.162.1.686.686,0,0,0,.224.05.868.868,0,0,0,.506-.131,2.291,2.291,0,0,1,.39-.218h0a.816.816,0,0,0,.533-.423A.279.279,0,0,0,9.037,4.386Zm1.919,6.189c.064-.424.4-.439.419-.722a6.925,6.925,0,0,0-.737-2.019A16.175,16.175,0,0,1,9.477,4.842a1.33,1.33,0,0,1-.7.469,3.466,3.466,0,0,0-.495.282,1.3,1.3,0,0,1-.667.191l-.075,0a.981.981,0,0,1-.584-.227,3.5,3.5,0,0,0-.4-.323c-.049-.028-.16-.1-.192-.127a11.5,11.5,0,0,1-1.23,3.521,5.39,5.39,0,0,0-.431,1.921.787.787,0,0,0,.281.657,4.251,4.251,0,0,1,1.2,1.017.881.881,0,0,1,.231.78.389.389,0,0,1-.212.219.746.746,0,0,1-.308.058c.061.077.124.156.184.235.095.124.186.249.266.376a3.084,3.084,0,0,0,3.578-.219,4.838,4.838,0,0,0,.213-.9,6.877,6.877,0,0,1,.136-1.248,1.158,1.158,0,0,1,.532-.793.931.931,0,0,1,.138-.062Q10.949,10.618,10.956,10.575ZM7.312,3.415h0a1.264,1.264,0,0,0,0-.195h0a1.2,1.2,0,0,0-.1-.437.771.771,0,0,0-.228-.311.417.417,0,0,0-.268-.1H6.691a.407.407,0,0,0-.279.135.762.762,0,0,0-.192.334,1.24,1.24,0,0,0-.051.446v0a1.244,1.244,0,0,0,.1.437A.819.819,0,0,0,6.456,4l.088-.065c.039-.028.071-.054.118-.09l-.023-.018a.429.429,0,0,1-.111-.162.732.732,0,0,1-.054-.22v-.01A.728.728,0,0,1,6.489,3.2a.412.412,0,0,1,.08-.179A.178.178,0,0,1,6.7,2.945h.013A.181.181,0,0,1,6.831,3a.417.417,0,0,1,.11.162A.733.733,0,0,1,7,3.378v.009a.756.756,0,0,1,0,.172,1.139,1.139,0,0,1,.262-.127Zm2.165-.188h0a.03.03,0,0,1,0-.013,1.185,1.185,0,0,0-.111-.5.892.892,0,0,0-.294-.371.638.638,0,0,0-.392-.133H8.671a.63.63,0,0,0-.4.141.909.909,0,0,0-.287.376,1.192,1.192,0,0,0-.1.512v.015a1.232,1.232,0,0,0,.012.152,2.052,2.052,0,0,1,.406.138.825.825,0,0,1-.012-.16V3.375A.751.751,0,0,1,8.352,3.1a.487.487,0,0,1,.139-.2.263.263,0,0,1,.174-.069h.009a.255.255,0,0,1,.178.081.493.493,0,0,1,.124.21.775.775,0,0,1,.04.27V3.4a.746.746,0,0,1-.058.278.63.63,0,0,1-.121.145l.145.052c.057.021.119.046.19.077.021.008.041.017.06.026a.965.965,0,0,0,.143-.24A1.2,1.2,0,0,0,9.477,3.227Zm4.652,9.4a1.383,1.383,0,0,1,.479.923.754.754,0,0,1-.436.571,5.414,5.414,0,0,0-1.589,1l-.082-.067.081.068A2.283,2.283,0,0,1,11.074,16a1.257,1.257,0,0,1-1.259-.718v0a.931.931,0,0,1-.078-.21c-.671.038-1.255-.166-1.722-.128-.688.038-1.118.2-1.51.206a1.132,1.132,0,0,1-.81.631,2.627,2.627,0,0,1-1.747-.324L4,15.357l-.05.094a6.592,6.592,0,0,0-1.854-.392.839.839,0,0,1-.628-.384,1.255,1.255,0,0,1,.07-.991,1.624,1.624,0,0,0-.025-.649,2.4,2.4,0,0,1-.037-.37.8.8,0,0,1,.087-.388h0a.961.961,0,0,1,.578-.453,1.377,1.377,0,0,0,.532-.258c.143-.151.271-.375.444-.561.023-.024.048-.048.073-.071a3.612,3.612,0,0,1,.193-1.666A10,10,0,0,1,5.194,6.245a3.61,3.61,0,0,0,.7-2.021C5.939,3.225,5.19.24,8.014.013,8.126,0,8.233,0,8.336,0c2.528,0,2.386,2.667,2.37,4.1a3.5,3.5,0,0,0,1.042,2.249A8.274,8.274,0,0,1,13.2,8.679a3.611,3.611,0,0,1,.116,2.471.948.948,0,0,1,.129.062.93.93,0,0,1,.125.092h0a1.224,1.224,0,0,1,.329.7,1.526,1.526,0,0,0,.225.617Z"/></svg>
